icons/fill-new-medic-health-bag-box-medical.svg

<svg xmlns="http://www.w3.org/2000/svg" width="32px" height="32px" viewBox="0 0 32 32" version="1.1">
    <title>fill-new-medic-health-bag-box-medical</title>
    <g id="fill-new-medic-health-bag-box-medical" stroke-width="1" fill-rule="evenodd">
        <path d="M21,3 C21.5522847,3 22,3.44771525 22,4 L22,7 L26,7 C28.209139,7 30,8.790861 30,11 L30,25 C30,27.209139 28.209139,29 26,29 L6,29 C3.790861,29 2,27.209139 2,25 L2,11 C2,8.790861 3.790861,7 6,7 L10,7 L10,4 C10,3.44771525 10.4477153,3 11,3 L21,3 Z M16,14 C15.4477153,14 15,14.4477153 15,15 L15,17 L13,17 C12.4871642,17 12.0644928,17.3860402 12.0067277,17.8833789 L12,18 C12,18.5522847 12.4477153,19 13,19 L15,19 L15,21 C15,21.5128358 15.3860402,21.9355072 15.8833789,21.9932723 L16,22 C16.5522847,22 17,21.5522847 17,21 L17,19 L19,19 C19.5128358,19 19.9355072,18.6139598 19.9932723,18.1166211 L20,18 C20,17.4477153 19.5522847,17 19,17 L17,17 L17,15 C17,14.4871642 16.6139598,14.0644928 16.1166211,14.0067277 L16,14 Z M20,5 L12,5 L12,7 L20,7 L20,5 Z" id="&#24418;&#29366;" />
    </g>
</svg>

<svg xmlns="http://www.w3.org/2000/svg" viewBox="0 0 32 32"><path fill="currentColor" d="M21 3a1 1 0 0 1 1 1v3h4a4 4 0 0 1 4 4v14a4 4 0 0 1-4 4H6a4 4 0 0 1-4-4V11a4 4 0 0 1 4-4h4V4a1 1 0 0 1 1-1zm-5 11a1 1 0 0 0-1 1v2h-2a1 1 0 0 0-.993.883L12 18a1 1 0 0 0 1 1h2v2a1 1 0 0 0 .883.993L16 22a1 1 0 0 0 1-1v-2h2a1 1 0 0 0 .993-.883L20 18a1 1 0 0 0-1-1h-2v-2a1 1 0 0 0-.883-.993zm4-9h-8v2h8z"/></svg>
